icons/Cards.svg

<svg width="24" height="24" viewBox="0 0 24 24" fill="none" xmlns="http://www.w3.org/2000/svg">
<g id="Cards">
<path id="Vector" d="M15.28 8.32H5.45C4.0969 8.32 3 9.4169 3 10.77V16.51C3 17.8631 4.0969 18.96 5.45 18.96H15.28C16.6331 18.96 17.73 17.8631 17.73 16.51V10.77C17.73 9.4169 16.6331 8.32 15.28 8.32Z" stroke="#00153F" stroke-width="1.5" stroke-linecap="round" stroke-linejoin="round"/>
<path id="Vector_2" d="M6.27002 8.32V7.5C6.27002 7.17742 6.33372 6.85801 6.45747 6.56011C6.58122 6.26221 6.76258 5.99168 6.99114 5.76404C7.2197 5.53641 7.49097 5.35615 7.78937 5.23362C8.08778 5.11108 8.40744 5.04868 8.73002 5.05H18.55C19.1998 5.05 19.823 5.30812 20.2824 5.76759C20.7419 6.22705 21 6.85022 21 7.5V13.23C21 13.8798 20.7419 14.5029 20.2824 14.9624C19.823 15.4219 19.1998 15.68 18.55 15.68H17.73" stroke="#00153F" stroke-width="1.5" stroke-linecap="round" stroke-linejoin="round"/>
<path id="Vector_3" d="M3 12.41H17.73" stroke="#00153F" stroke-width="1.5" stroke-linejoin="round"/>
</g>
</svg>

<svg xmlns="http://www.w3.org/2000/svg" fill="none" viewBox="0 0 24 24"><g stroke="currentColor" stroke-linejoin="round" stroke-width="1.5"><path stroke-linecap="round" d="M15.28 8.32H5.45A2.45 2.45 0 0 0 3 10.77v5.74a2.45 2.45 0 0 0 2.45 2.45h9.83a2.45 2.45 0 0 0 2.45-2.45v-5.74a2.45 2.45 0 0 0-2.45-2.45Z"/><path stroke-linecap="round" d="M6.27 8.32V7.5a2.45 2.45 0 0 1 2.46-2.45h9.82A2.45 2.45 0 0 1 21 7.5v5.73a2.45 2.45 0 0 1-2.45 2.45h-.82"/><path d="M3 12.41h14.73"/></g></svg>
